X:650
T: "Polterabend"
N: Z1331
O: Europa, Mitteleuropa, Deutschland, Westfalen
R: Zech -, Schalks - Lied
M: 3/4
L: 1/16
K: C
G,2G,2A,B, | C4D4A,2B,2 | C4z2
G,2G,2A,B, | C4D4A,2B,2 | C4z2
CDE2C2 | B,3CD2D2EDCB, | A,3B,C2D2D2D2 | G,4z2
CDE2C2 | B,3CD2D2EDCB, | A,3B,C2C2D2B,2 | C4z2

